portal/assets/img/component/stepper/spacing-stepper-1.svg

<svg width="235" height="80" viewBox="0 0 235 80" fill="none" xmlns="http://www.w3.org/2000/svg">
<rect x="23.5" y="2" width="44" height="44" rx="22" fill="#98A2B3"/>
<path d="M47.0767 18.3636V30H45.6676V19.8409H45.5994L42.7585 21.7273V20.2955L45.6676 18.3636H47.0767Z" fill="white"/>
<rect x="23.5" y="2" width="44" height="44" rx="22" stroke="white" stroke-width="4"/>
<path d="M1.44105 58.3636H4.47514L7.67969 66.1818H7.81605L11.0206 58.3636H14.0547V70H11.6683V62.4261H11.5717L8.56037 69.9432H6.93537L3.92401 62.3977H3.82741V70H1.44105V58.3636ZM18.5249 70.1648C17.968 70.1648 17.4718 70.0682 17.0362 69.875C16.6006 69.678 16.2559 69.3883 16.0021 69.0057C15.7521 68.6193 15.6271 68.1383 15.6271 67.5625C15.6271 67.0777 15.7161 66.6705 15.8942 66.3409C16.0722 66.0114 16.3146 65.7462 16.6214 65.5455C16.9283 65.3447 17.2768 65.1932 17.6669 65.0909C18.0608 64.9886 18.4737 64.9167 18.9055 64.875C19.4131 64.822 19.8222 64.7727 20.1328 64.7273C20.4434 64.678 20.6688 64.6061 20.8089 64.5114C20.9491 64.4167 21.0192 64.2765 21.0192 64.0909V64.0568C21.0192 63.697 20.9055 63.4186 20.6783 63.2216C20.4548 63.0246 20.1366 62.9261 19.7237 62.9261C19.2881 62.9261 18.9415 63.0227 18.6839 63.2159C18.4264 63.4053 18.2559 63.6439 18.1726 63.9318L15.9339 63.75C16.0476 63.2197 16.2711 62.7614 16.6044 62.375C16.9377 61.9848 17.3677 61.6856 17.8942 61.4773C18.4245 61.2652 19.0381 61.1591 19.7351 61.1591C20.2199 61.1591 20.6839 61.2159 21.1271 61.3295C21.5741 61.4432 21.9699 61.6193 22.3146 61.858C22.6631 62.0966 22.9377 62.4034 23.1385 62.7784C23.3393 63.1496 23.4396 63.5947 23.4396 64.1136V70H21.1442V68.7898H21.076C20.9358 69.0625 20.7483 69.303 20.5135 69.5114C20.2786 69.7159 19.9964 69.8769 19.6669 69.9943C19.3374 70.108 18.9567 70.1648 18.5249 70.1648ZM19.218 68.4943C19.5741 68.4943 19.8885 68.4242 20.1612 68.2841C20.4339 68.1402 20.648 67.947 20.8033 67.7045C20.9586 67.4621 21.0362 67.1875 21.0362 66.8807V65.9545C20.9605 66.0038 20.8563 66.0492 20.7237 66.0909C20.5949 66.1288 20.4491 66.1648 20.2862 66.1989C20.1233 66.2292 19.9605 66.2576 19.7976 66.2841C19.6347 66.3068 19.487 66.3277 19.3544 66.3466C19.0703 66.3883 18.8222 66.4545 18.6101 66.5455C18.398 66.6364 18.2332 66.7595 18.1158 66.9148C17.9983 67.0663 17.9396 67.2557 17.9396 67.483C17.9396 67.8125 18.0589 68.0644 18.2976 68.2386C18.54 68.4091 18.8468 68.4943 19.218 68.4943ZM25.3175 70V61.2727H27.6641V62.7955H27.755C27.9141 62.2538 28.1811 61.8447 28.5561 61.5682C28.9311 61.2879 29.3629 61.1477 29.8516 61.1477C29.9728 61.1477 30.1035 61.1553 30.2436 61.1705C30.3838 61.1856 30.5069 61.2064 30.6129 61.233V63.3807C30.4993 63.3466 30.3421 63.3163 30.1413 63.2898C29.9406 63.2633 29.7569 63.25 29.5902 63.25C29.2341 63.25 28.916 63.3277 28.6357 63.483C28.3591 63.6345 28.1394 63.8466 27.9766 64.1193C27.8175 64.392 27.7379 64.7064 27.7379 65.0625V70H25.3175ZM34.0575 67.4886L34.0632 64.5852H34.4155L37.2109 61.2727H39.9893L36.2337 65.6591H35.6598L34.0575 67.4886ZM31.8643 70V58.3636H34.2848V70H31.8643ZM37.3189 70L34.7507 66.1989L36.3643 64.4886L40.1541 70H37.3189ZM44.7947 70.1705C43.897 70.1705 43.1243 69.9886 42.4766 69.625C41.8326 69.2576 41.3364 68.7386 40.9879 68.0682C40.6394 67.3939 40.4652 66.5966 40.4652 65.6761C40.4652 64.7784 40.6394 63.9905 40.9879 63.3125C41.3364 62.6345 41.8269 62.1061 42.4595 61.7273C43.0959 61.3485 43.8421 61.1591 44.6982 61.1591C45.2739 61.1591 45.8099 61.2519 46.3061 61.4375C46.8061 61.6193 47.2417 61.8939 47.6129 62.2614C47.9879 62.6288 48.2796 63.0909 48.4879 63.6477C48.6963 64.2008 48.8004 64.8485 48.8004 65.5909V66.2557H41.4311V64.7557H46.522C46.522 64.4072 46.4463 64.0985 46.2947 63.8295C46.1432 63.5606 45.933 63.3504 45.6641 63.1989C45.3989 63.0436 45.0902 62.9659 44.7379 62.9659C44.3705 62.9659 44.0447 63.0511 43.7607 63.2216C43.4804 63.3883 43.2607 63.6136 43.1016 63.8977C42.9425 64.178 42.861 64.4905 42.8572 64.8352V66.2614C42.8572 66.6932 42.9368 67.0663 43.0959 67.3807C43.2588 67.6951 43.4879 67.9375 43.7834 68.108C44.0788 68.2784 44.4292 68.3636 44.8345 68.3636C45.1035 68.3636 45.3497 68.3258 45.5732 68.25C45.7966 68.1742 45.9879 68.0606 46.147 67.9091C46.3061 67.7576 46.4273 67.572 46.5107 67.3523L48.7493 67.5C48.6357 68.0379 48.4027 68.5076 48.0504 68.9091C47.7019 69.3068 47.2512 69.6174 46.6982 69.8409C46.1489 70.0606 45.5144 70.1705 44.7947 70.1705ZM50.38 70V61.2727H52.7266V62.7955H52.8175C52.9766 62.2538 53.2436 61.8447 53.6186 61.5682C53.9936 61.2879 54.4254 61.1477 54.9141 61.1477C55.0353 61.1477 55.166 61.1553 55.3061 61.1705C55.4463 61.1856 55.5694 61.2064 55.6754 61.233V63.3807C55.5618 63.3466 55.4046 63.3163 55.2038 63.2898C55.0031 63.2633 54.8194 63.25 54.6527 63.25C54.2966 63.25 53.9785 63.3277 53.6982 63.483C53.4216 63.6345 53.2019 63.8466 53.0391 64.1193C52.88 64.392 52.8004 64.7064 52.8004 65.0625V70H50.38ZM65.272 61.2727V63.0909H60.0163V61.2727H65.272ZM61.2095 59.1818H63.63V67.3182C63.63 67.5417 63.6641 67.7159 63.7322 67.8409C63.8004 67.9621 63.8951 68.0473 64.0163 68.0966C64.1413 68.1458 64.2853 68.1705 64.4482 68.1705C64.5618 68.1705 64.6754 68.161 64.7891 68.142C64.9027 68.1193 64.9898 68.1023 65.0504 68.0909L65.4311 69.892C65.3099 69.9299 65.1394 69.9735 64.9197 70.0227C64.7 70.0758 64.433 70.108 64.1186 70.1193C63.5353 70.142 63.0239 70.0644 62.5845 69.8864C62.1489 69.7083 61.8099 69.4318 61.5675 69.0568C61.325 68.6818 61.2057 68.2083 61.2095 67.6364V59.1818ZM66.8487 70V61.2727H69.2692V70H66.8487ZM68.0646 60.1477C67.7048 60.1477 67.3961 60.0284 67.1385 59.7898C66.8847 59.5473 66.7578 59.2576 66.7578 58.9205C66.7578 58.5871 66.8847 58.3011 67.1385 58.0625C67.3961 57.8201 67.7048 57.6989 68.0646 57.6989C68.4245 57.6989 68.7313 57.8201 68.9851 58.0625C69.2427 58.3011 69.3714 58.5871 69.3714 58.9205C69.3714 59.2576 69.2427 59.5473 68.9851 59.7898C68.7313 60.0284 68.4245 60.1477 68.0646 60.1477ZM75.8501 61.2727V63.0909H70.5945V61.2727H75.8501ZM71.7876 59.1818H74.2081V67.3182C74.2081 67.5417 74.2422 67.7159 74.3104 67.8409C74.3786 67.9621 74.4732 68.0473 74.5945 68.0966C74.7195 68.1458 74.8634 68.1705 75.0263 68.1705C75.1399 68.1705 75.2536 68.161 75.3672 68.142C75.4808 68.1193 75.5679 68.1023 75.6286 68.0909L76.0092 69.892C75.888 69.9299 75.7176 69.9735 75.4979 70.0227C75.2782 70.0758 75.0111 70.108 74.6967 70.1193C74.1134 70.142 73.602 70.0644 73.1626 69.8864C72.727 69.7083 72.388 69.4318 72.1456 69.0568C71.9032 68.6818 71.7839 68.2083 71.7876 67.6364V59.1818ZM80.0348 58.3636V70H77.6143V58.3636H80.0348ZM85.951 70.1705C85.0533 70.1705 84.2805 69.9886 83.6328 69.625C82.9889 69.2576 82.4927 68.7386 82.1442 68.0682C81.7957 67.3939 81.6214 66.5966 81.6214 65.6761C81.6214 64.7784 81.7957 63.9905 82.1442 63.3125C82.4927 62.6345 82.9832 62.1061 83.6158 61.7273C84.2521 61.3485 84.9983 61.1591 85.8544 61.1591C86.4302 61.1591 86.9661 61.2519 87.4624 61.4375C87.9624 61.6193 88.398 61.8939 88.7692 62.2614C89.1442 62.6288 89.4358 63.0909 89.6442 63.6477C89.8525 64.2008 89.9567 64.8485 89.9567 65.5909V66.2557H82.5874V64.7557H87.6783C87.6783 64.4072 87.6025 64.0985 87.451 63.8295C87.2995 63.5606 87.0893 63.3504 86.8203 63.1989C86.5552 63.0436 86.2464 62.9659 85.8942 62.9659C85.5268 62.9659 85.201 63.0511 84.9169 63.2216C84.6366 63.3883 84.4169 63.6136 84.2578 63.8977C84.0987 64.178 84.0173 64.4905 84.0135 64.8352V66.2614C84.0135 66.6932 84.093 67.0663 84.2521 67.3807C84.415 67.6951 84.6442 67.9375 84.9396 68.108C85.2351 68.2784 85.5855 68.3636 85.9908 68.3636C86.2597 68.3636 86.5059 68.3258 86.7294 68.25C86.9529 68.1742 87.1442 68.0606 87.3033 67.9091C87.4624 67.7576 87.5836 67.572 87.6669 67.3523L89.9055 67.5C89.7919 68.0379 89.5589 68.5076 89.2067 68.9091C88.8582 69.3068 88.4074 69.6174 87.8544 69.8409C87.3052 70.0606 86.6707 70.1705 85.951 70.1705Z" fill="#344054"/>
<rect x="2" y="48" width="88" height="4" fill="#E8178A" fill-opacity="0.24"/>
<path d="M97.5 48V52" stroke="#E8178A"/>
<rect x="104" y="42.5" width="31" height="18" rx="3" fill="#E8178A"/>
<path d="M110.479 54.2216H113.97V55.5H115.44V54.2216H116.342V52.9893H115.44V48.2273H113.516L110.479 53.0107V54.2216ZM113.999 52.9893H112.028V52.9325L113.942 49.9034H113.999V52.9893ZM117.381 57.5455H118.894V54.6264H118.94C119.15 55.081 119.608 55.5888 120.488 55.5888C121.731 55.5888 122.701 54.6051 122.701 52.7798C122.701 50.9048 121.689 49.9744 120.492 49.9744C119.579 49.9744 119.142 50.5178 118.94 50.9616H118.873V50.0455H117.381V57.5455ZM118.862 52.7727C118.862 51.7997 119.274 51.1783 120.009 51.1783C120.758 51.1783 121.156 51.8281 121.156 52.7727C121.156 53.7244 120.751 54.3849 120.009 54.3849C119.281 54.3849 118.862 53.7457 118.862 52.7727ZM124.768 50.0455H123.206L124.768 52.7727L123.149 55.5H124.711L125.77 53.6143L126.846 55.5H128.39L126.768 52.7727L128.348 50.0455H126.796L125.77 51.9524L124.768 50.0455Z" fill="white"/>
<line x1="94" y1="48.5" x2="101" y2="48.5" stroke="#E8178A"/>
<line x1="94" y1="51.5" x2="101" y2="51.5" stroke="#E8178A"/>
</svg>

<svg width="235" height="80" viewBox="0 0 235 80" fill="none" xmlns="http://www.w3.org/2000/svg"><rect x="23.5" y="2" width="44" height="44" rx="22" fill="#98A2B3"/><path d="M47.077 18.364V30h-1.41V19.84H45.6l-2.84 1.887v-1.431l2.909-1.932h1.409Z" fill="#fff"/><rect x="23.5" y="2" width="44" height="44" rx="22" stroke="#fff" stroke-width="4"/><path d="M1.441 58.364h3.034l3.205 7.818h.136l3.205-7.818h3.034V70h-2.387v-7.574h-.096L8.56 69.943H6.935l-3.011-7.545h-.097V70H1.441V58.364Zm17.084 11.8c-.557 0-1.053-.096-1.489-.289a2.397 2.397 0 0 1-1.034-.87c-.25-.386-.375-.867-.375-1.442 0-.485.09-.892.267-1.222.178-.33.42-.595.727-.795a3.522 3.522 0 0 1 1.046-.455 7.969 7.969 0 0 1 1.238-.216 31.4 31.4 0 0 0 1.228-.148c.31-.049.536-.12.676-.216a.475.475 0 0 0 .21-.42v-.034c0-.36-.113-.638-.34-.835-.224-.197-.542-.296-.955-.296-.436 0-.782.097-1.04.29a1.33 1.33 0 0 0-.511.716l-2.24-.182a3.06 3.06 0 0 1 .671-1.375c.334-.39.764-.69 1.29-.898.53-.212 1.144-.318 1.841-.318.485 0 .949.057 1.392.17.447.114.843.29 1.188.529.348.239.623.545.823.92.201.372.302.817.302 1.336V70h-2.296v-1.21h-.068c-.14.272-.328.513-.563.721a2.605 2.605 0 0 1-.846.483c-.33.114-.71.17-1.142.17Zm.693-1.67c.356 0 .67-.07.943-.21a1.67 1.67 0 0 0 .642-.58c.156-.242.233-.516.233-.823v-.927c-.076.05-.18.095-.312.137a5.692 5.692 0 0 1-.438.108 21.7 21.7 0 0 1-.488.085l-.444.063a2.991 2.991 0 0 0-.744.199 1.19 1.19 0 0 0-.494.369.9.9 0 0 0-.176.568c0 .33.119.581.358.756.242.17.549.255.92.255Zm6.1 1.506v-8.727h2.346v1.522h.091c.16-.541.426-.95.801-1.227.375-.28.807-.42 1.296-.42a3.648 3.648 0 0 1 .76.085v2.148a3.157 3.157 0 0 0-.47-.091 4.167 4.167 0 0 0-.552-.04c-.356 0-.674.078-.954.233a1.714 1.714 0 0 0-.66.636 1.84 1.84 0 0 0-.238.944V70h-2.42Zm8.74-2.511.005-2.904h.352l2.796-3.312h2.778l-3.755 4.386h-.574l-1.602 1.83ZM31.863 70V58.364h2.42V70h-2.42Zm5.455 0-2.568-3.801 1.613-1.71L40.154 70H37.32Zm7.476.17c-.898 0-1.67-.181-2.318-.545a3.736 3.736 0 0 1-1.49-1.557c-.348-.674-.522-1.471-.522-2.392 0-.898.174-1.686.523-2.364a3.864 3.864 0 0 1 1.471-1.585c.637-.378 1.383-.568 2.24-.568.575 0 1.11.093 1.607.279.5.181.936.456 1.307.823.375.368.667.83.875 1.387.208.553.312 1.2.312 1.943v.665H41.43v-1.5h5.091c0-.349-.076-.657-.227-.926a1.628 1.628 0 0 0-.63-.631 1.8 1.8 0 0 0-.927-.233c-.367 0-.693.085-.977.256a1.8 1.8 0 0 0-.66.676 1.92 1.92 0 0 0-.244.937v1.426c0 .432.08.805.239 1.12.163.314.392.556.687.727.296.17.646.256 1.051.256.27 0 .516-.038.74-.114.223-.076.414-.19.573-.34.16-.152.28-.338.364-.558l2.238.148a3.056 3.056 0 0 1-.699 1.41c-.348.397-.799.707-1.352.93-.55.22-1.184.33-1.903.33ZM50.38 70v-8.727h2.347v1.522h.09c.16-.541.427-.95.802-1.227.375-.28.806-.42 1.295-.42a3.648 3.648 0 0 1 .761.085v2.148a3.157 3.157 0 0 0-.471-.091c-.2-.027-.385-.04-.551-.04a1.94 1.94 0 0 0-.955.233 1.714 1.714 0 0 0-.659.636 1.84 1.84 0 0 0-.239.944V70h-2.42Zm14.892-8.727v1.818h-5.256v-1.818h5.256Zm-4.063-2.091h2.421v8.136c0 .224.034.398.102.523a.564.564 0 0 0 .284.256c.125.049.27.074.432.074.114 0 .227-.01.341-.029l.261-.051.381 1.801a6.777 6.777 0 0 1-.511.13 4.09 4.09 0 0 1-.801.097c-.584.023-1.095-.055-1.535-.233a2.141 2.141 0 0 1-1.017-.83c-.242-.374-.361-.848-.358-1.42v-8.454ZM66.85 70v-8.727h2.42V70h-2.42Zm1.216-9.852c-.36 0-.669-.12-.927-.358a1.16 1.16 0 0 1-.38-.87c0-.333.127-.619.38-.858.258-.242.567-.363.927-.363.36 0 .666.121.92.364.258.238.386.524.386.857 0 .338-.128.627-.386.87-.254.238-.56.358-.92.358Zm7.785 1.125v1.818h-5.255v-1.818h5.255Zm-4.062-2.091h2.42v8.136c0 .224.034.398.102.523a.564.564 0 0 0 .284.256c.126.049.27.074.432.074.114 0 .228-.01.341-.029.114-.023.2-.04.262-.051l.38 1.801a6.772 6.772 0 0 1-.511.13 4.09 4.09 0 0 1-.801.097c-.584.023-1.095-.055-1.534-.233a2.141 2.141 0 0 1-1.017-.83c-.243-.374-.362-.848-.358-1.42v-8.454Zm8.247-.818V70h-2.42V58.364h2.42ZM85.95 70.17c-.898 0-1.67-.182-2.318-.546a3.736 3.736 0 0 1-1.489-1.557c-.348-.674-.523-1.471-.523-2.392 0-.898.175-1.686.523-2.364a3.864 3.864 0 0 1 1.472-1.585c.636-.378 1.382-.568 2.238-.568.576 0 1.112.093 1.608.279.5.181.936.456 1.307.823.375.368.667.83.875 1.387.209.553.313 1.2.313 1.943v.665h-7.37v-1.5h5.091c0-.349-.075-.657-.227-.926a1.627 1.627 0 0 0-.63-.631 1.799 1.799 0 0 0-.927-.233c-.367 0-.693.085-.977.256a1.8 1.8 0 0 0-.66.676 1.92 1.92 0 0 0-.244.937v1.426c0 .432.08.805.24 1.12.162.314.391.556.687.727.295.17.645.256 1.05.256.27 0 .516-.038.74-.114.223-.076.414-.19.573-.34.16-.152.28-.338.364-.558l2.239.148a3.057 3.057 0 0 1-.7 1.41c-.348.397-.799.707-1.352.93-.549.22-1.183.33-1.903.33Z" fill="#344054"/><path fill="#E8178A" fill-opacity=".24" d="M2 48h88v4H2z"/><path d="M97.5 48v4" stroke="#E8178A"/><rect x="104" y="42.5" width="31" height="18" rx="3" fill="#E8178A"/><path d="M110.479 54.222h3.491V55.5h1.47v-1.278h.902v-1.233h-.902v-4.762h-1.924l-3.037 4.784v1.21Zm3.52-1.233h-1.971v-.056l1.914-3.03h.057v3.086Zm3.382 4.556h1.513v-2.919h.046c.21.455.668.963 1.548.963 1.243 0 2.213-.984 2.213-2.81 0-1.874-1.012-2.805-2.209-2.805-.913 0-1.35.544-1.552.988h-.067v-.917h-1.492v7.5Zm1.481-4.772c0-.973.412-1.595 1.147-1.595.749 0 1.147.65 1.147 1.595 0 .951-.405 1.612-1.147 1.612-.728 0-1.147-.64-1.147-1.612Zm5.906-2.728h-1.562l1.562 2.728-1.619 2.727h1.562l1.059-1.886 1.076 1.886h1.544l-1.622-2.727 1.58-2.728h-1.552l-1.026 1.907-1.002-1.907Z" fill="#fff"/><path stroke="#E8178A" d="M94 48.5h7m-7 3h7"/></svg>
